assets/img/braze_icons/cloud-raining-05.svg

<svg fill="none" height="24" viewBox="0 0 24 24" width="24" xmlns="http://www.w3.org/2000/svg"><g fill="#801ed7"><path d="m12 1c-2.31095 0-4.33874 1.20617-5.49059 3.01977-3.08425.24959-5.50941 2.8317-5.50941 5.98023 0 3.3137 2.68629 6 6 6h10.5c3.0376 0 5.5-2.4624 5.5-5.5 0-2.86519-2.1909-5.21866-4.9888-5.47655-.9737-2.36082-3.2972-4.02345-6.0112-4.02345z"/><path d="m8.37141 17.5713c.51279.2051.7622.7871.55709 1.2999l-1 2.5c-.20512.5128-.78709.7622-1.29987.5571-.51278-.2052-.7622-.7871-.55708-1.2999l1-2.5c.20511-.5128.78708-.7622 1.29986-.5571z"/><path d="m16.3714 17.5713c.5128.2051.7622.7871.5571 1.2999l-1 2.5c-.2051.5128-.7871.7622-1.2999.5571-.5128-.2052-.7622-.7871-.5571-1.2999l1-2.5c.2052-.5128.7871-.7622 1.2999-.5571z"/><path d="m12.9285 18.8712c.2051-.5128-.0443-1.0948-.5571-1.2999s-1.0947.0443-1.2999.5571l-1 2.5c-.20507.5128.0443 1.0947.5571 1.2999.5128.2051 1.0948-.0443 1.2999-.5571z"/></g></svg>

<svg width="24" height="24" viewBox="0 0 24 24" fill="none" xmlns="http://www.w3.org/2000/svg">
<path d="M12 1C9.68905 1 7.66126 2.20617 6.50941 4.01977C3.42516 4.26936 1 6.85147 1 10C1 13.3137 3.68629 16 7 16H17.5C20.5376 16 23 13.5376 23 10.5C23 7.63481 20.8091 5.28134 18.0112 5.02345C17.0375 2.66263 14.714 1 12 1Z" fill="#801ED7"/>
<path d="M8.37141 17.5713C8.8842 17.7764 9.13361 18.3584 8.9285 18.8712L7.9285 21.3712C7.72338 21.884 7.14141 22.1334 6.62863 21.9283C6.11585 21.7231 5.86643 21.1412 6.07155 20.6284L7.07155 18.1284C7.27666 17.6156 7.85863 17.3662 8.37141 17.5713Z" fill="#801ED7"/>
<path d="M16.3714 17.5713C16.8842 17.7764 17.1336 18.3584 16.9285 18.8712L15.9285 21.3712C15.7234 21.884 15.1414 22.1334 14.6286 21.9283C14.1158 21.7231 13.8664 21.1412 14.0715 20.6284L15.0715 18.1284C15.2767 17.6156 15.8586 17.3662 16.3714 17.5713Z" fill="#801ED7"/>
<path d="M12.9285 18.8712C13.1336 18.3584 12.8842 17.7764 12.3714 17.5713C11.8586 17.3662 11.2767 17.6156 11.0715 18.1284L10.0715 20.6284C9.86643 21.1412 10.1158 21.7231 10.6286 21.9283C11.1414 22.1334 11.7234 21.884 11.9285 21.3712L12.9285 18.8712Z" fill="#801ED7"/>
</svg>
